X:1
T:Acropolis, 10.9.10.8 D
T:Acropolis, 10.9.10.8 D
T:Grant Colfax Tullar, 1894
T:Public Domain Courtesy of the Cyber Hymnal™
C:Grant Colfax Tullar, 1894
Z:Public Domain
Z:Courtesy of the Cyber Hymnal™
%%score ( 1 2 ) ( 3 4 )
L:1/8
Q:1/4=85
M:6/8
K:D
V:1 treble 
V:2 treble 
V:3 bass 
V:4 bass 
V:1
 [FA]/[EG]/ | [DF][DF][DF] [DF][DE]D | [DF] [FA]4 [FA]/[FA]/ | [GB][Ac][Bd] [FA][EG][DF] | %4
 [CE]3- [CE]2 [FA]/[EG]/ | [DF][DF][DF] [DF][DE]D | [DF] [FA]4 [FA] | [GB][Ac][Bd] [FA][DF][CE] | %8
 D3- D2 [FA]/[FA]/ | [Fd][Fd][Fd] [Fd][Ac][GB] | [FA] [Fd]4 [Fd]/[Fd]/ | %11
 [Gd][Gd][Gd] [Gd][Ac][GB] | [FA]3- [FA]2 [CA]/[EG]/ | [DF][DF][DF] [DF][EG][FA] | %14
 [GB] [Gd]4 [GB] | [FA][FA][FA] [Gc][GB][Gc] | [Fd]3- [Fd]2 |] %17
V:2
 x | x5 D | x6 | x6 | x6 | x5 D | x6 | x6 | D3- D2 x | x6 | x6 | x6 | x6 | x6 | x6 | x6 | x5 |] %17
V:3
 [A,,A,]/[A,,A,]/ | [D,A,][D,A,][D,A,] [D,A,][D,G,][D,F,] | [D,A,] [D,D]4 [D,D]/[D,D]/ | %3
 [G,D][G,D][G,D] [D,D][D,A,][D,A,] | [A,,A,]3- [A,,A,]2 [A,,A,]/[A,,A,]/ | %5
 [D,A,][D,A,][D,A,] [D,A,][D,G,][D,F,] | [D,A,] [D,D]4 [D,D] | [G,D][G,D][G,D] [A,D]A,[A,,G,] | %8
 [D,F,]3- [D,F,]2 [D,A,]/[D,A,]/ | [D,A,][D,A,][D,A,] [D,A,][D,D][D,D] | %10
 [D,D] [D,A,]4 [D,A,]/[D,A,]/ | [G,B,][G,B,][G,B,] [G,B,][G,D][G,D] | %12
 [D,D]3- [D,D]2 [A,,E,]/[A,,A,]/ | [D,A,][D,A,][D,A,] [D,A,][D,A,][D,D] | [G,D] [G,B,]4 [G,D] | %15
 [A,D][A,D][A,D] [A,,A,][A,,A,][A,,A,] | [D,A,]3- [D,A,]2 |] %17
V:4
 x | x6 | x6 | x6 | x6 | x6 | x6 | x4 A, x | x6 | x6 | x6 | x6 | x6 | x6 | x6 | x6 | x5 |] %17

